public/assets/Sponsors/past/gatsby.svg

<svg width="20" height="20" viewBox="0 0 20 20" fill="none" xmlns="http://www.w3.org/2000/svg">
<path d="M17.8568 9.99999H12.8568V11.4286H16.2854C15.7854 13.5714 14.214 15.3571 12.1425 16.0714L3.92824 7.85713C4.78538 5.35713 7.21395 3.57142 9.99967 3.57142C12.1425 3.57142 14.0711 4.64285 15.2854 6.2857L16.3568 5.35713C14.9282 3.42856 12.6425 2.14285 9.99967 2.14285C6.28538 2.14285 3.14253 4.7857 2.35681 8.2857L11.7854 17.7143C15.214 16.8571 17.8568 13.7143 17.8568 9.99999Z" fill="white"/>
<path d="M2.1427 10.0714C2.1427 12.0714 2.92841 14 4.42841 15.5C5.92841 17 7.92841 17.7857 9.85699 17.7857L2.1427 10.0714Z" fill="white"/>
<path d="M10 0C4.5 0 0 4.5 0 10C0 15.5 4.5 20 10 20C15.5 20 20 15.5 20 10C20 4.5 15.5 0 10 0ZM4.42857 15.5714C2.92857 14.0714 2.14286 12.0714 2.14286 10.1429L9.92857 17.8571C7.92857 17.7857 5.92857 17.0714 4.42857 15.5714ZM11.7143 17.6429L2.35714 8.28571C3.14286 4.78571 6.28571 2.14286 10 2.14286C12.6429 2.14286 14.9286 3.42857 16.3571 5.35714L15.2857 6.28571C14.0714 4.64286 12.1429 3.57143 10 3.57143C7.21429 3.57143 4.85714 5.35714 3.92857 7.85714L12.1429 16.0714C14.2143 15.3571 15.7857 13.5714 16.2857 11.4286H12.8571V10H17.8571C17.8571 13.7143 15.2143 16.8571 11.7143 17.6429Z" fill="#663399"/>
</svg>

<svg width="20" height="20" fill="none" xmlns="http://www.w3.org/2000/svg"><path d="M17.857 10h-5v1.429h3.428c-.5 2.142-2.071 3.928-4.143 4.642L3.928 7.857c.857-2.5 3.286-4.286 6.072-4.286 2.143 0 4.071 1.072 5.285 2.715l1.072-.929C14.928 3.43 12.643 2.143 10 2.143c-3.715 0-6.857 2.643-7.643 6.143l9.428 9.428c3.429-.857 6.072-4 6.072-7.714Zm-15.714.071c0 2 .785 3.929 2.285 5.429 1.5 1.5 3.5 2.286 5.429 2.286L2.143 10.07Z" fill="#fff"/><path d="M10 0C4.5 0 0 4.5 0 10s4.5 10 10 10 10-4.5 10-10S15.5 0 10 0ZM4.429 15.571c-1.5-1.5-2.286-3.5-2.286-5.428l7.786 7.714c-2-.071-4-.786-5.5-2.286Zm7.285 2.072L2.357 8.286c.786-3.5 3.929-6.143 7.643-6.143 2.643 0 4.929 1.286 6.357 3.214l-1.071.929C14.07 4.643 12.143 3.57 10 3.57c-2.786 0-5.143 1.786-6.071 4.286l8.214 8.214c2.071-.714 3.643-2.5 4.143-4.642h-3.429V10h5c0 3.714-2.643 6.857-6.143 7.643Z" fill="#639"/></svg>
